X:1
L:1/8
Q:3/8=120
M:6/8
K:Amin
""^A""""Am"" A2 A e2 d |""C"" efg G2 G |""Am"" A2 A e2 c |""^/"" A3 c3 |""Am"" A2 A e2 d |""C"" efg G2 G | 
""Am"" A2 A e2 c |""^/"" A3 c3 |:""^B""""C"" c2 c c2 B/c/ |""G"" d2 d d2 d |""Am"" e2 e a2 g |""C"" e3 g3 | 
""Am"" c2 c c2 B/c/ |""G"" d2 d d>ef |""Am"" e>dc""G"" BcG |""Am"" A3 e3 :|
